assets/webpack/mono.svg

<svg viewBox="0 0 24 24" xmlns="http://www.w3.org/2000/svg"><path d="m22.1987 18.498-9.7699 5.5022v-4.2855l6.0872-3.3338 3.6826 2.117zm.6683-.6026v-11.507l-3.5752 2.0544v7.396zm-21.0657.6026 9.7699 5.5022v-4.2855l-6.0872-3.3338-3.6826 2.117zm-.6683-.6026v-11.507l3.5751 2.0544v7.396zm.4183-12.2515 10.0199-5.644v4.1434l-6.4192 3.5153-.0489.028zm20.8975 0-10.02-5.644v4.1434l6.4192 3.5154.0489.028 3.5518-2.0427zm-10.8775 13.096-6.0056-3.2873v-6.5142l6.0054 3.4525v6.349zm.8575 0 6.0053-3.2873v-6.5142l-6.0053 3.4525zm-6.4564-10.5554 6.0287-3.3015 6.0289 3.3015-6.0288 3.4665z"/></svg>

<svg xmlns="http://www.w3.org/2000/svg" viewBox="0 0 24 24"><path d="M22.199 18.498 12.429 24v-4.285l6.087-3.334zm.668-.603V6.388l-3.575 2.055v7.396zm-21.066.603L11.571 24v-4.285L5.484 16.38zm-.668-.603V6.388l3.575 2.055v7.396zm.418-12.251L11.571 0v4.143L5.152 7.66l-.049.028zm20.898 0L12.429 0v4.143l6.419 3.516.049.028zM11.57 18.74l-6.005-3.287V8.938l6.005 3.453zm.858 0 6.005-3.287V8.938l-6.005 3.453zM5.972 8.185l6.03-3.302 6.028 3.302-6.029 3.466z"/></svg>
